X:1
T:Title
%%score { ( 1 2 4 ) | ( 3 5 6 ) }
L:1/8
Q:1/4=94
M:3/4
K:C
V:1 treble nm="Grand Piano"
V:2 treble 
V:4 treble 
V:3 bass 
V:5 bass 
V:6 bass 
V:1
 A>B c>B A>c | [Ec]2 z2 A,2 | A>B c>B A>B | E6 | E>E A>G F>E | z2 F4 | z z/ E/ F>A d>c | %7
w: ????~???? * * * * *|||||||
 B4- [^G,B]2 | A>B c>B A>c | [Ec]2 z2 A,2 | A>B c>B A>B | E6 | E>E A>G F>E | z2 F4 | D>D D>D G>F | %15
w: ||||||||
 E6 | E>E E>E z z/ D/ | z2 E4 | A>A A>A G>E | F6 | A>A A>A G>F | z2 E4 | E>E E>G F>D | D2 z2 z2 | %24
w: |||||||||
 c>c c>c B>A | z2 [EA]4 | c>c c>c B>A | d4- [A,d]2 | d>d d>d c>B | e2 c2 [EA]2 | c>B A>^G A>B | %31
w: |||||||
 [EA]6 |] %32
w: |
V:2
 E4 E2 | z2 [DF]4 | x6 | z2 C4 | x6 | G2 z2 A,2 | D4 z2 | D2 D4 | E4 E2 | z2 [DF]4 | x6 | z2 C4 | %12
 x6 | G2 z2 A,2 | x6 | z2 C4 | z2 z2 C2 | E2 z2 A,2 | x6 | z2 D4 | x6 | A2 z2 A,2 | x6 | %23
 [E,^G,E-]4 [E,G,E]2 | E4 E2 | [Ec]2 z2 A,2 | x6 | F2 F4 | F4 F2 | E4 z2 | E4 D2 | x6 |] %32
V:3
 [C,E,A,]4 [C,E,A,]2 | [C,E,A,]2 [D,F,A,]2 [D,F,]2 | [D,F,A,D]4 [D,F,A,D]2 | C2 z2 z2 | %4
 [C,E,A,C]4 [C,E,A,C]2 | D2 D4 | [D,F,A,]4 [D,F,A,D]2 | [B,,E,^G,]4 [B,,E,]2 | %8
 [C,E,A,]4 [C,E,A,]2 | [C,E,A,]2 [D,F,A,]2 [D,F,]2 | [D,F,A,D]4 [D,F,A,D]2 | C2 z2 z2 | %12
 [C,E,A,C]4 [C,E,A,C]2 | D2 D4 | z2 z2 D2 | C2 z2 [C,E,]2 | [C,E,A,C]4 [C,E,A,]2 | C4- [C,E,C]2 | %18
 [C,E,A,C]4 [C,E,A,C]2 | D2 z2 [D,F,]2 | [D,F,A,D]4 [D,F,A,D]2 | z2 C4 | C4- [C,E,A,C]2 | z2 D4 | %24
 [A,,E,A,]4 [A,,E,A,]2 | [A,,E,A,]4 [C,E,]2 | [C,E,A,]4 [C,E,A,]2 | [D,F,A,]4 [D,F,]2 | %28
 [D,F,A,]4 [D,F,A,]2 | [C,E,A,]4 [C,E,A,]2 | [A,,E,A,]4 [B,,E,^G,]2 | [C,E,A,]6 |] %32
V:4
 x6 | x6 | x6 | z2 z2 A,2 | x6 | x6 | x6 | x6 | x6 | x6 | x6 | z2 z2 A,2 | x6 | x6 | x6 | %15
 z2 z2 A,2 | x6 | x6 | x6 | z2 z2 A,2 | x6 | x6 | x6 | x6 | x6 | x6 | x6 | x6 | x6 | x6 | x6 | %31
 x6 |] %32
V:5
 x6 | x6 | x6 | [C,E,A,]4 [C,E,]2 | x6 | [D,F,A,]4 [D,F,]2 | x6 | x6 | x6 | x6 | x6 | %11
 [C,E,A,]4 [C,E,]2 | x6 | [D,F,A,]4 [D,F,]2 | [D,F,A,]6 | [C,E,A,]4 z2 | x6 | [C,E,A,]4 z2 | x6 | %19
 [D,F,A,]4 z2 | x6 | C2 z2 [C,E,]2 | [C,E,A,]4 z2 | z2 z2 B,,2 | x6 | x6 | x6 | x6 | x6 | x6 | x6 | %31
 x6 |] %32
V:6
 x6 | x6 | x6 | x6 | x6 | x6 | x6 | x6 | x6 | x6 | x6 | x6 | x6 | x6 | x6 | x6 | x6 | x6 | x6 | %19
 x6 | x6 | [C,E,A,]4 z2 | x6 | B,,4 z2 | x6 | x6 | x6 | x6 | x6 | x6 | x6 | x6 |] %32

